X:1
T:the White Petticoat
T:Handy With the Stick
S:Philippe Varlet <philvar:EROLS.COM irtrad-l 2001-7-26
N:[missing final 3 bars reconstructed from O'Neill's version by JC]
M:6/8
L:1/8
K:Dm
G | Adc BAG | FED A,DF | EAA  BAA | ^cAA  BAG |
    Adc BAG | FED A,DF | EAA  BAG |  FDC  D2 :|
|:\
f | fdB FBd | feg fed  | BAG  DGB |  Ad^c dAF |
    EAA FAA | EAG FED  | A,DF BAG |  FDC  D2 :|
